X:1
T:Title
L:1/8
Q:1/4=120
M:4/4
K:G
V:1 treble nm="Church Organ, Staff"
V:1
 A2 B2 c4 | G2 A2 B4 | F2 G2 A2 F2 | E2 F2 D4 | A2 B2 c4 | B2 ^c2 ^d4 | ^c2 ^d2 e2 f2 | d2 ^c2 B4 | %8
w: By~Geoffrey~Shaw * *||||||||
 ef e2 d2 B2 | c2 d2 B4 |[M:3/2] Ac B2 G2 E2 F4- |[M:4/4] F2 G2 E4- | E4 z4 |] %13
w: |||||

